src/standard/kanban.svg

<svg xmlns="http://www.w3.org/2000/svg" viewBox="0 0 36 36">
  <path d="M10 11.38H5a.62.62 0 0 0-.62.62v5a.62.62 0 0 0 .62.62h5a.62.62 0 0 0 .62-.62v-5a.62.62 0 0 0-.62-.62Zm-.62 5H5.62v-3.76h3.76Zm11.12-5h-5a.62.62 0 0 0-.62.62v5a.62.62 0 0 0 .62.62h5a.62.62 0 0 0 .62-.62v-5a.62.62 0 0 0-.62-.62Zm-.62 5h-3.76v-3.76h3.76Zm.62 3h-5a.62.62 0 0 0-.62.62v5a.62.62 0 0 0 .62.62h5a.62.62 0 0 0 .62-.62v-5a.62.62 0 0 0-.62-.62Zm-.62 5h-3.76v-3.76h3.76Zm11.12-13h-5a.62.62 0 0 0-.62.62v5a.62.62 0 0 0 .62.62h5a.62.62 0 0 0 .62-.62v-5a.62.62 0 0 0-.62-.62Zm-.62 5h-3.76v-3.76h3.76Z"/>
  <path d="M32 8.38h-8.38V5a.62.62 0 0 0-1.24 0v3.38h-8.76V5a.62.62 0 1 0-1.24 0v3.38H4a.62.62 0 1 0 0 1.24h8.38V31a.62.62 0 0 0 1.24 0V9.62h8.76V31a.62.62 0 0 0 1.24 0V9.62H32a.62.62 0 0 0 0-1.24Z"/>
</svg>

<svg id="aaadc0c7-ff41-4ba8-9776-6f9d96e59bd4" data-name="Icon" xmlns="http://www.w3.org/2000/svg" viewBox="0 0 36 36">
  <title>Kanban icon - Black</title>
<desc>rally, agile, board, planning, project, work, workfront, complete, request, diagrams and graphs</desc>
<metadata><?xpacket begin="﻿" id="W5M0MpCehiHzreSzNTczkc9d"?>
<x:xmpmeta xmlns:x="adobe:ns:meta/" x:xmptk="Adobe XMP Core 8.0-c001 1.000000, 0000/00/00-00:00:00        ">
   <rdf:RDF xmlns:rdf="http://www.w3.org/1999/02/22-rdf-syntax-ns#">
      <rdf:Description rdf:about=""
            xmlns:xmp="http://ns.adobe.com/xap/1.0/"
            xmlns:dc="http://purl.org/dc/elements/1.1/"
            xmlns:cq="http://www.day.com/jcr/cq/1.0"
            xmlns:tiff="http://ns.adobe.com/tiff/1.0/">
         <xmp:rhcc-effective-on>2023-12-08T17:34:59.868Z</xmp:rhcc-effective-on>
         <xmp:rhcc-metadata-complete-moderator>pending</xmp:rhcc-metadata-complete-moderator>
         <xmp:rhcc-translation-id>TRAb9b5ee18-3a4c-46fb-ba55-c201598dea3b</xmp:rhcc-translation-id>
         <xmp:brand-content-type>Icon</xmp:brand-content-type>
         <xmp:CreateDate>2023-12-08T17:34:59.868Z</xmp:CreateDate>
         <xmp:rhcc-effective-on-set-on-upload>true</xmp:rhcc-effective-on-set-on-upload>
         <xmp:rhcc-metadata-complete-uploader>pending</xmp:rhcc-metadata-complete-uploader>
         <xmp:rhcc-file-last-modified>2023-12-08T17:35:17.117Z</xmp:rhcc-file-last-modified>
         <xmp:rhcc-audience>rhcc-audience:internal</xmp:rhcc-audience>
         <xmp:rhcc-rights-restricted>no</xmp:rhcc-rights-restricted>
         <xmp:brand-content-subtype>Icon</xmp:brand-content-subtype>
         <xmp:rhcc-derivative-id>DERb9b5ee18-3a4c-46fb-ba55-c201598dea3b</xmp:rhcc-derivative-id>
         <xmp:brand-logo-color>Black</xmp:brand-logo-color>
         <xmp:rhcc-notify-portal-subscribers-on-change>yes</xmp:rhcc-notify-portal-subscribers-on-change>
         <dc:format>image/svg+xml</dc:format>
         <dc:modified>2024-02-09T20:34:57.446Z</dc:modified>
         <dc:title>
            <rdf:Alt>
               <rdf:li xml:lang="x-default">Kanban icon - Black</rdf:li>
            </rdf:Alt>
         </dc:title>
         <dc:description>
            <rdf:Alt>
               <rdf:li xml:lang="x-default">rally, agile, board, planning, project, work, workfront, complete, request, diagrams and graphs</rdf:li>
            </rdf:Alt>
         </dc:description>
         <cq:lastReplicationAction_scene7>Activate</cq:lastReplicationAction_scene7>
         <cq:lastReplicationAction_publish>Activate</cq:lastReplicationAction_publish>
         <cq:lastReplicated_publish>2024-02-09T22:22:28.297Z</cq:lastReplicated_publish>
         <cq:lastReplicatedBy>workflow-process-service</cq:lastReplicatedBy>
         <cq:lastReplicationAction>Activate</cq:lastReplicationAction>
         <cq:lastReplicatedBy_publish>workflow-process-service</cq:lastReplicatedBy_publish>
         <cq:isDelivered>true</cq:isDelivered>
         <cq:lastReplicated>2024-02-09T22:22:28.297Z</cq:lastReplicated>
         <cq:lastReplicatedBy_scene7>workflow-process-service</cq:lastReplicatedBy_scene7>
         <cq:lastReplicated_scene7>2024-02-09T22:22:28.297Z</cq:lastReplicated_scene7>
         <tiff:ImageLength>36</tiff:ImageLength>
         <tiff:ImageWidth>36</tiff:ImageWidth>
      </rdf:Description>
   </rdf:RDF>
</x:xmpmeta>
                                                                                                    
                                                                                                    
                                                                                                    
                                                                                                    
                                                                                                    
                                                                                                    
                                                                                                    
                                                                                                    
                                                                                                    
                                                                                                    
                                 
<?xpacket end="w"?></metadata>
<g>
    <path d="M10,11.38H5a.62.62,0,0,0-.62.62v5a.62.62,0,0,0,.62.62h5a.62.62,0,0,0,.62-.62V12A.62.62,0,0,0,10,11.38Zm-.62,5H5.62V12.62H9.38Z"/>
    <path d="M20.5,11.38h-5a.62.62,0,0,0-.62.62v5a.62.62,0,0,0,.62.62h5a.62.62,0,0,0,.62-.62V12A.62.62,0,0,0,20.5,11.38Zm-.62,5H16.12V12.62h3.76Z"/>
    <path d="M20.5,19.38h-5a.62.62,0,0,0-.62.62v5a.62.62,0,0,0,.62.62h5a.62.62,0,0,0,.62-.62V20A.62.62,0,0,0,20.5,19.38Zm-.62,5H16.12V20.62h3.76Z"/>
    <path d="M31,11.38H26a.62.62,0,0,0-.62.62v5a.62.62,0,0,0,.62.62h5a.62.62,0,0,0,.62-.62V12A.62.62,0,0,0,31,11.38Zm-.62,5H26.62V12.62h3.76Z"/>
    <path d="M32,8.38H23.62V5a.62.62,0,0,0-1.24,0V8.38H13.62V5a.62.62,0,1,0-1.24,0V8.38H4A.62.62,0,1,0,4,9.62h8.38V31a.62.62,0,0,0,1.24,0V9.62h8.76V31a.62.62,0,0,0,1.24,0V9.62H32A.62.62,0,0,0,32,8.38Z"/>
  </g>
</svg>
